X: 18373
T: Hundred Pipers
R: jig
M: 6/8
K: Dmajor
|:A|B2 D DED|E2 F G2 e|d2 B BAG|B2 A AGA|
B2 D DED|E2 F G2 e|d2 B ABA|G2 G2:|
|:A|B2 d dBd|e2 f g2 e|d2 B BAG|B2 A AGA|
B2 d dBd|e2 f g2 e|d2 B ABA|G2 G2:|

